images/nuxt.svg

<svg width="77" height="77" viewBox="0 0 77 77" fill="none" xmlns="http://www.w3.org/2000/svg">
<path d="M43.6041 26.7591L40.9852 31.294L32.0288 15.7809L4.53403 63.3973H23.1498C23.1498 65.9019 25.1801 67.9322 27.6847 67.9322H4.53403C2.91402 67.9322 1.41721 67.0675 0.607344 65.6644C-0.202526 64.2614 -0.202443 62.5329 0.607562 61.1299L28.1023 13.5134C28.9124 12.1103 30.4095 11.2458 32.0297 11.2458C33.6499 11.2458 35.1471 12.1103 35.9571 13.5134L43.6041 26.7591Z" fill="#00C58E"/>
<path d="M63.4518 61.1298L46.223 31.2939L43.6041 26.759L40.9852 31.2939L23.7582 61.1298C22.9482 62.5328 22.9481 64.2613 23.758 65.6643C24.5678 67.0674 26.0647 67.9322 27.6847 67.9322H59.5197C61.14 67.9322 62.6374 67.0683 63.4478 65.6651C64.2581 64.262 64.2582 62.5331 63.448 61.1298H63.4518ZM27.6847 63.3973L43.6041 35.8288L59.5197 63.3973H27.6847L27.6847 63.3973Z" fill="#2F495E"/>
<path d="M75.7698 65.6649C74.9599 67.0678 73.4632 67.9324 71.8433 67.9324H59.5197C62.0243 67.9324 64.0546 65.902 64.0546 63.3975H71.8339L49.7602 25.1664L46.223 31.2942L43.6041 26.7593L45.8338 22.8989C46.6438 21.4958 48.141 20.6313 49.7612 20.6313C51.3814 20.6313 52.8785 21.4958 53.6886 22.8989L75.7698 61.13C76.5799 62.5331 76.5799 64.2618 75.7698 65.6649Z" fill="#108775"/>
</svg>

<svg width="77" height="77" viewBox="0 0 77 77" fill="none" xmlns="http://www.w3.org/2000/svg"><path d="M43.604 26.76l-2.619 4.534-8.956-15.513L4.534 63.397H23.15a4.535 4.535 0 004.535 4.535H4.534A4.534 4.534 0 01.608 61.13l27.494-47.617a4.535 4.535 0 017.855 0l7.647 13.246z" fill="#00C58E"/><path d="M63.452 61.13L46.223 31.294l-2.619-4.535-2.619 4.535L23.758 61.13a4.535 4.535 0 003.927 6.802H59.52a4.536 4.536 0 003.928-6.802h.004zm-35.767 2.267l15.92-27.568L59.52 63.397H27.685z" fill="#2F495E"/><path d="M75.77 65.665a4.534 4.534 0 01-3.927 2.267H59.52a4.535 4.535 0 004.535-4.535h7.779L49.76 25.168l-3.537 6.127-2.619-4.535 2.23-3.86a4.535 4.535 0 017.855 0l22.08 38.231a4.535 4.535 0 010 4.535z" fill="#108775"/></svg>
